img/icon-email.svg

<svg width="22" height="21" viewBox="0 0 22 21" fill="none" xmlns="http://www.w3.org/2000/svg">
<path d="M21.6421 7.95919C21.6399 7.93527 21.6349 7.91165 21.6273 7.88875C21.6224 7.8683 21.6155 7.84833 21.6068 7.82905C21.5967 7.81022 21.5846 7.79241 21.5707 7.77594C21.5568 7.75638 21.5407 7.73837 21.5227 7.72214C21.5169 7.7173 21.5144 7.71067 21.5083 7.70584L18.0386 5.11398V2.42774C18.0386 1.85281 17.5539 1.38669 16.9562 1.38669H13.0463L11.4807 0.217584C11.094 -0.0725279 10.5517 -0.0725279 10.1649 0.217584L8.59908 1.38669H4.68915C4.09139 1.38669 3.60677 1.85277 3.60677 2.42774V5.11402L0.13813 7.70588C0.132 7.71076 0.129463 7.71734 0.123713 7.72218C0.105743 7.73837 0.0896345 7.75642 0.0757243 7.77598C0.0618563 7.79245 0.0497641 7.81023 0.039659 7.82909C0.030907 7.84833 0.0240576 7.86834 0.0191108 7.88879C0.0115848 7.91136 0.00663803 7.93462 0.0043126 7.95821C0.0043126 7.96549 0 7.97175 0 7.97903V19.7786C0.000507365 19.9993 0.0747518 20.214 0.211783 20.391C0.213939 20.3942 0.21432 20.398 0.216814 20.4008C0.219351 20.4035 0.224763 20.4067 0.228357 20.4105C0.431049 20.667 0.746292 20.8182 1.08128 20.8196H20.5641C20.9004 20.8187 21.217 20.6667 21.4199 20.4088C21.4228 20.4053 21.4271 20.4043 21.4296 20.4008C21.4322 20.3974 21.4325 20.3942 21.4347 20.3911C21.5717 20.214 21.646 19.9993 21.6465 19.7786V7.98001C21.6464 7.97273 21.6425 7.96646 21.6421 7.95919ZM10.6062 0.765153C10.7322 0.668855 10.9106 0.668855 11.0366 0.765153L11.8689 1.38665H9.77634L10.6062 0.765153ZM1.17218 20.1256L10.6062 13.0773C10.7323 12.9812 10.9106 12.9812 11.0366 13.0773L20.4732 20.1256H1.17218ZM20.9249 19.5846L11.4807 12.5297C11.0939 12.2399 10.5518 12.2399 10.1649 12.5297L0.720459 19.5846V8.5085L6.63279 12.9243C6.79032 13.0418 7.01703 13.0142 7.13918 12.8627C7.26133 12.7112 7.23266 12.4931 7.07512 12.3756L1.06864 7.88977L3.60682 5.99261V8.67401C3.60682 8.86567 3.76837 9.02102 3.9676 9.02102C4.16686 9.02102 4.32838 8.86563 4.32838 8.67401V2.4277C4.32838 2.23604 4.48989 2.0807 4.68915 2.0807H16.9561C17.1554 2.0807 17.3169 2.23604 17.3169 2.4277V8.67401C17.3169 8.86567 17.4784 9.02102 17.6777 9.02102C17.8769 9.02102 18.0384 8.86563 18.0384 8.67401V5.99261L20.5766 7.88977L14.5597 12.3837C14.4562 12.4591 14.4028 12.5822 14.42 12.7061C14.4371 12.8299 14.5221 12.9353 14.6426 12.982C14.7631 13.0287 14.9003 13.0096 15.002 12.9319L20.9248 8.5085V19.5846H20.9249Z" fill="#FF0032"/>
<path d="M15.1512 8.32692V6.93886C15.1512 4.63904 13.2128 2.77466 10.8217 2.77466C8.43057 2.77466 6.49219 4.63904 6.49219 6.93886C6.49219 9.23869 8.43057 11.1031 10.8217 11.1031C11.021 11.1031 11.1825 10.9477 11.1825 10.7561C11.1825 10.5644 11.021 10.4091 10.8217 10.4091C8.82911 10.4091 7.21379 8.85542 7.21379 6.93891C7.21379 5.02239 8.82911 3.46875 10.8217 3.46875C12.8143 3.46875 14.4296 5.02239 14.4296 6.93891V8.32696C14.4296 8.71028 14.1065 9.02101 13.708 9.02101C13.3095 9.02101 12.9864 8.71028 12.9864 8.32696V6.93891C12.9864 6.74725 12.8249 6.5919 12.6256 6.5919C12.4264 6.5919 12.2649 6.74725 12.2649 6.93891C12.2649 7.7055 11.6187 8.32696 10.8217 8.32696C10.0247 8.32696 9.37854 7.7055 9.37854 6.93891C9.37854 6.17231 10.0247 5.55085 10.8217 5.55085C11.021 5.55085 11.1825 5.39551 11.1825 5.20385C11.1825 5.01219 11.021 4.85684 10.8217 4.85684C9.85284 4.85477 9.00051 5.47212 8.73499 6.36832C8.46947 7.26452 8.85536 8.22127 9.67983 8.71073C10.5043 9.20018 11.5665 9.10315 12.2804 8.47312C12.3589 9.20698 13.0221 9.75263 13.788 9.71363C14.554 9.67459 15.1536 9.06468 15.1512 8.32692Z" fill="#FF0032"/>
</svg>

<svg width="22" height="21" fill="none" xmlns="http://www.w3.org/2000/svg"><path d="M21.642 7.96a.315.315 0 0 0-.015-.071.335.335 0 0 0-.02-.06.308.308 0 0 0-.036-.053.33.33 0 0 0-.048-.054l-.015-.016-3.47-2.592V2.428c0-.575-.484-1.041-1.082-1.041h-3.91L11.481.217a1.103 1.103 0 0 0-1.316 0l-1.566 1.17H4.69c-.598 0-1.082.466-1.082 1.04v2.687L.138 7.706c-.006.005-.009.011-.014.016a.33.33 0 0 0-.048.054.31.31 0 0 0-.036.053.334.334 0 0 0-.02.06.318.318 0 0 0-.016.07c0 .006-.004.013-.004.02v11.8c0 .22.075.435.212.612.002.003.002.007.005.01l.011.01c.203.256.518.407.853.409h19.483c.336-.001.653-.153.856-.411.003-.004.007-.005.01-.008l.005-.01c.137-.177.211-.392.212-.612V7.98c0-.007-.005-.014-.005-.02zM10.606.764a.357.357 0 0 1 .43 0l.833.622H9.776l.83-.622zm-9.434 19.36l9.434-7.048a.357.357 0 0 1 .43 0l9.437 7.049h-19.3zm19.753-.54L11.48 12.53a1.104 1.104 0 0 0-1.316 0L.72 19.585V8.508l5.913 4.416a.37.37 0 0 0 .506-.061.338.338 0 0 0-.064-.487L1.07 7.89l2.538-1.897v2.681c0 .192.161.347.36.347.2 0 .361-.155.361-.347V2.428c0-.192.162-.347.361-.347h12.267c.2 0 .36.155.36.347v6.246c0 .192.162.347.362.347.199 0 .36-.155.36-.347V5.993l2.539 1.897-6.017 4.494a.34.34 0 0 0 .083.598c.12.047.257.028.359-.05l5.923-4.424v11.077z" fill="#FF0032"/><path d="M15.151 8.327V6.939c0-2.3-1.938-4.164-4.33-4.164-2.39 0-4.329 1.864-4.329 4.164s1.939 4.164 4.33 4.164c.199 0 .36-.155.36-.347a.354.354 0 0 0-.36-.347c-1.993 0-3.608-1.554-3.608-3.47 0-1.917 1.615-3.47 3.608-3.47 1.992 0 3.608 1.553 3.608 3.47v1.388a.708.708 0 0 1-.722.694.708.708 0 0 1-.722-.694V6.939a.354.354 0 0 0-.36-.347c-.2 0-.361.155-.361.347 0 .766-.646 1.388-1.443 1.388s-1.443-.622-1.443-1.388c0-.767.646-1.388 1.443-1.388.199 0 .36-.155.36-.347a.354.354 0 0 0-.36-.347c-.97-.002-1.821.615-2.087 1.511-.266.897.12 1.853.945 2.343.824.49 1.886.392 2.6-.238.079.734.742 1.28 1.508 1.24.766-.038 1.366-.648 1.363-1.386z" fill="#FF0032"/></svg>
